X: 232
T: The Miller's Maid
B: O'Neill's 232
N: "Moderate"
N: "Collected by J.O'Neill"
Z: 1997 by John Chambers <jc@trillian.mit.edu>
M: C
L: 1/8
K:G
d>c \
| B2AG B>cd2 | g3a b2ze | (efgf) (edcB) | B2A2 z2d>c |
| B2AG Bcd2 | g3(a/b/) d2zg | (e>fg)(e fg)(ab) | g4 ||
|| g2 \
| gbag gfed | g2ab d2zd | efgd edcB | B2A2 z2g>a |
| b>gaf g>fed | egdB A2zd | (e>fg)(e fg)(ab) | g4 ||


